public/static/icons/ic_flags_us.svg

<svg height="20" viewBox="0 0 28 20" width="28" xmlns="http://www.w3.org/2000/svg" xmlns:xlink="http://www.w3.org/1999/xlink"><defs><rect id="a" height="20" rx="3" width="28"/><linearGradient id="b" x1="50%" x2="50%" y1="0%" y2="100%"><stop offset="0" stop-color="#fff"/><stop offset="1" stop-color="#f0f0f0"/></linearGradient><path id="c" d="m10 6.66666667c.3681898 0 .6666667.29847683.6666667.66666666 0 .36818984-.2984769.66666667-.6666667.66666667-.36818983 0-.66666667-.29847683-.66666667-.66666667 0-.36818983.29847684-.66666666.66666667-.66666666zm-2.66666667 0c.36818984 0 .66666667.29847683.66666667.66666666 0 .36818984-.29847683.66666667-.66666667.66666667-.36818983 0-.66666666-.29847683-.66666666-.66666667 0-.36818983.29847683-.66666666.66666666-.66666666zm-2.66666666 0c.36818983 0 .66666666.29847683.66666666.66666666 0 .36818984-.29847683.66666667-.66666666.66666667-.36818984 0-.66666667-.29847683-.66666667-.66666667 0-.36818983.29847683-.66666666.66666667-.66666666zm-2.66666667 0c.36818983 0 .66666667.29847683.66666667.66666666 0 .36818984-.29847684.66666667-.66666667.66666667s-.66666667-.29847683-.66666667-.66666667c0-.36818983.29847684-.66666666.66666667-.66666666zm1.33333333-1.33333334c.36818984 0 .66666667.29847684.66666667.66666667s-.29847683.66666667-.66666667.66666667c-.36818983 0-.66666666-.29847684-.66666666-.66666667s.29847683-.66666667.66666666-.66666667zm2.66666667 0c.36818983 0 .66666667.29847684.66666667.66666667s-.29847684.66666667-.66666667.66666667-.66666667-.29847684-.66666667-.66666667.29847684-.66666667.66666667-.66666667zm2.66666667 0c.36818983 0 .66666666.29847684.66666666.66666667s-.29847683.66666667-.66666666.66666667c-.36818984 0-.66666667-.29847684-.66666667-.66666667s.29847683-.66666667.66666667-.66666667zm1.33333333-1.33333333c.3681898 0 .6666667.29847683.6666667.66666667 0 .36818983-.2984769.66666666-.6666667.66666666-.36818983 0-.66666667-.29847683-.66666667-.66666666 0-.36818984.29847684-.66666667.66666667-.66666667zm-2.66666667 0c.36818984 0 .66666667.29847683.66666667.66666667 0 .36818983-.29847683.66666666-.66666667.66666666-.36818983 0-.66666666-.29847683-.66666666-.66666666 0-.36818984.29847683-.66666667.66666666-.66666667zm-2.66666666 0c.36818983 0 .66666666.29847683.66666666.66666667 0 .36818983-.29847683.66666666-.66666666.66666666-.36818984 0-.66666667-.29847683-.66666667-.66666666 0-.36818984.29847683-.66666667.66666667-.66666667zm-2.66666667 0c.36818983 0 .66666667.29847683.66666667.66666667 0 .36818983-.29847684.66666666-.66666667.66666666s-.66666667-.29847683-.66666667-.66666666c0-.36818984.29847684-.66666667.66666667-.66666667zm1.33333333-1.33333333c.36818984 0 .66666667.29847683.66666667.66666666 0 .36818984-.29847683.66666667-.66666667.66666667-.36818983 0-.66666666-.29847683-.66666666-.66666667 0-.36818983.29847683-.66666666.66666666-.66666666zm2.66666667 0c.36818983 0 .66666667.29847683.66666667.66666666 0 .36818984-.29847684.66666667-.66666667.66666667s-.66666667-.29847683-.66666667-.66666667c0-.36818983.29847684-.66666666.66666667-.66666666zm2.66666667 0c.36818983 0 .66666666.29847683.66666666.66666666 0 .36818984-.29847683.66666667-.66666666.66666667-.36818984 0-.66666667-.29847683-.66666667-.66666667 0-.36818983.29847683-.66666666.66666667-.66666666zm-6.66666667-1.33333334c.36818983 0 .66666667.29847684.66666667.66666667s-.29847684.66666667-.66666667.66666667-.66666667-.29847684-.66666667-.66666667.29847684-.66666667.66666667-.66666667zm2.66666667 0c.36818983 0 .66666666.29847684.66666666.66666667s-.29847683.66666667-.66666666.66666667c-.36818984 0-.66666667-.29847684-.66666667-.66666667s.29847683-.66666667.66666667-.66666667zm2.66666666 0c.36818984 0 .66666667.29847684.66666667.66666667s-.29847683.66666667-.66666667.66666667c-.36818983 0-.66666666-.29847684-.66666666-.66666667s.29847683-.66666667.66666666-.66666667zm2.66666667 0c.3681898 0 .6666667.29847684.6666667.66666667s-.2984769.66666667-.6666667.66666667c-.36818983 0-.66666667-.29847684-.66666667-.66666667s.29847684-.66666667.66666667-.66666667z"/><filter id="d" height="130%" width="110.7%" x="-5.4%" y="-7.5%"><feOffset dy="1" in="SourceAlpha" result="shadowOffsetOuter1"/><feColorMatrix in="shadowOffsetOuter1" values="0 0 0 0 0   0 0 0 0 0   0 0 0 0 0  0 0 0 0.06 0"/></filter><mask id="e" fill="#fff"><use fill="#fff" fill-rule="evenodd" xlink:href="#a"/></mask></defs><g fill="none" fill-rule="evenodd"><use fill="#fff" xlink:href="#a"/><path d="m28 18.6666667v1.3333333h-28v-1.3333333zm0-2.6666667v1.3333333h-28v-1.3333333zm0-2.6666667v1.3333334h-28v-1.3333334zm0-2.6666666v1.3333333h-28v-1.3333333zm0-2.6666667v1.33333333h-28v-1.33333333zm0-2.66666667v1.33333334h-28v-1.33333334zm0-2.66666666v1.33333333h-28v-1.33333333zm0-2.66666667v1.33333333h-28v-1.33333333z" fill="#d02f44" mask="url(#e)"/><path d="m0 0h12v9.333h-12z" fill="#46467f" mask="url(#e)"/><g mask="url(#e)"><use fill="#000" filter="url(#d)" xlink:href="#c"/><use fill="url(#b)" xlink:href="#c"/></g></g></svg>

<svg xmlns="http://www.w3.org/2000/svg" xmlns:xlink="http://www.w3.org/1999/xlink" width="28" height="20" viewBox="0 0 28 20">
  <defs>
    <rect id="ic_flags_us-a" width="28" height="20" x="0" y="0" rx="3"/>
    <linearGradient id="ic_flags_us-e" x1="50%" x2="50%" y1="0%" y2="100%">
      <stop offset="0%" stop-color="#FFF"/>
      <stop offset="100%" stop-color="#F0F0F0"/>
    </linearGradient>
    <path id="ic_flags_us-d" d="M10,6.66666667 C10.3681898,6.66666667 10.6666667,6.9651435 10.6666667,7.33333333 C10.6666667,7.70152317 10.3681898,8 10,8 C9.63181017,8 9.33333333,7.70152317 9.33333333,7.33333333 C9.33333333,6.9651435 9.63181017,6.66666667 10,6.66666667 Z M7.33333333,6.66666667 C7.70152317,6.66666667 8,6.9651435 8,7.33333333 C8,7.70152317 7.70152317,8 7.33333333,8 C6.9651435,8 6.66666667,7.70152317 6.66666667,7.33333333 C6.66666667,6.9651435 6.9651435,6.66666667 7.33333333,6.66666667 Z M4.66666667,6.66666667 C5.0348565,6.66666667 5.33333333,6.9651435 5.33333333,7.33333333 C5.33333333,7.70152317 5.0348565,8 4.66666667,8 C4.29847683,8 4,7.70152317 4,7.33333333 C4,6.9651435 4.29847683,6.66666667 4.66666667,6.66666667 Z M2,6.66666667 C2.36818983,6.66666667 2.66666667,6.9651435 2.66666667,7.33333333 C2.66666667,7.70152317 2.36818983,8 2,8 C1.63181017,8 1.33333333,7.70152317 1.33333333,7.33333333 C1.33333333,6.9651435 1.63181017,6.66666667 2,6.66666667 Z M3.33333333,5.33333333 C3.70152317,5.33333333 4,5.63181017 4,6 C4,6.36818983 3.70152317,6.66666667 3.33333333,6.66666667 C2.9651435,6.66666667 2.66666667,6.36818983 2.66666667,6 C2.66666667,5.63181017 2.9651435,5.33333333 3.33333333,5.33333333 Z M6,5.33333333 C6.36818983,5.33333333 6.66666667,5.63181017 6.66666667,6 C6.66666667,6.36818983 6.36818983,6.66666667 6,6.66666667 C5.63181017,6.66666667 5.33333333,6.36818983 5.33333333,6 C5.33333333,5.63181017 5.63181017,5.33333333 6,5.33333333 Z M8.66666667,5.33333333 C9.0348565,5.33333333 9.33333333,5.63181017 9.33333333,6 C9.33333333,6.36818983 9.0348565,6.66666667 8.66666667,6.66666667 C8.29847683,6.66666667 8,6.36818983 8,6 C8,5.63181017 8.29847683,5.33333333 8.66666667,5.33333333 Z M10,4 C10.3681898,4 10.6666667,4.29847683 10.6666667,4.66666667 C10.6666667,5.0348565 10.3681898,5.33333333 10,5.33333333 C9.63181017,5.33333333 9.33333333,5.0348565 9.33333333,4.66666667 C9.33333333,4.29847683 9.63181017,4 10,4 Z M7.33333333,4 C7.70152317,4 8,4.29847683 8,4.66666667 C8,5.0348565 7.70152317,5.33333333 7.33333333,5.33333333 C6.9651435,5.33333333 6.66666667,5.0348565 6.66666667,4.66666667 C6.66666667,4.29847683 6.9651435,4 7.33333333,4 Z M4.66666667,4 C5.0348565,4 5.33333333,4.29847683 5.33333333,4.66666667 C5.33333333,5.0348565 5.0348565,5.33333333 4.66666667,5.33333333 C4.29847683,5.33333333 4,5.0348565 4,4.66666667 C4,4.29847683 4.29847683,4 4.66666667,4 Z M2,4 C2.36818983,4 2.66666667,4.29847683 2.66666667,4.66666667 C2.66666667,5.0348565 2.36818983,5.33333333 2,5.33333333 C1.63181017,5.33333333 1.33333333,5.0348565 1.33333333,4.66666667 C1.33333333,4.29847683 1.63181017,4 2,4 Z M3.33333333,2.66666667 C3.70152317,2.66666667 4,2.9651435 4,3.33333333 C4,3.70152317 3.70152317,4 3.33333333,4 C2.9651435,4 2.66666667,3.70152317 2.66666667,3.33333333 C2.66666667,2.9651435 2.9651435,2.66666667 3.33333333,2.66666667 Z M6,2.66666667 C6.36818983,2.66666667 6.66666667,2.9651435 6.66666667,3.33333333 C6.66666667,3.70152317 6.36818983,4 6,4 C5.63181017,4 5.33333333,3.70152317 5.33333333,3.33333333 C5.33333333,2.9651435 5.63181017,2.66666667 6,2.66666667 Z M8.66666667,2.66666667 C9.0348565,2.66666667 9.33333333,2.9651435 9.33333333,3.33333333 C9.33333333,3.70152317 9.0348565,4 8.66666667,4 C8.29847683,4 8,3.70152317 8,3.33333333 C8,2.9651435 8.29847683,2.66666667 8.66666667,2.66666667 Z M2,1.33333333 C2.36818983,1.33333333 2.66666667,1.63181017 2.66666667,2 C2.66666667,2.36818983 2.36818983,2.66666667 2,2.66666667 C1.63181017,2.66666667 1.33333333,2.36818983 1.33333333,2 C1.33333333,1.63181017 1.63181017,1.33333333 2,1.33333333 Z M4.66666667,1.33333333 C5.0348565,1.33333333 5.33333333,1.63181017 5.33333333,2 C5.33333333,2.36818983 5.0348565,2.66666667 4.66666667,2.66666667 C4.29847683,2.66666667 4,2.36818983 4,2 C4,1.63181017 4.29847683,1.33333333 4.66666667,1.33333333 Z M7.33333333,1.33333333 C7.70152317,1.33333333 8,1.63181017 8,2 C8,2.36818983 7.70152317,2.66666667 7.33333333,2.66666667 C6.9651435,2.66666667 6.66666667,2.36818983 6.66666667,2 C6.66666667,1.63181017 6.9651435,1.33333333 7.33333333,1.33333333 Z M10,1.33333333 C10.3681898,1.33333333 10.6666667,1.63181017 10.6666667,2 C10.6666667,2.36818983 10.3681898,2.66666667 10,2.66666667 C9.63181017,2.66666667 9.33333333,2.36818983 9.33333333,2 C9.33333333,1.63181017 9.63181017,1.33333333 10,1.33333333 Z"/>
    <filter id="ic_flags_us-c" width="110.7%" height="130%" x="-5.4%" y="-7.5%" filterUnits="objectBoundingBox">
      <feOffset dy="1" in="SourceAlpha" result="shadowOffsetOuter1"/>
      <feColorMatrix in="shadowOffsetOuter1" values="0 0 0 0 0   0 0 0 0 0   0 0 0 0 0  0 0 0 0.06 0"/>
    </filter>
  </defs>
  <g fill="none" fill-rule="evenodd">
    <mask id="ic_flags_us-b" fill="#fff">
      <use xlink:href="#ic_flags_us-a"/>
    </mask>
    <use fill="#FFF" xlink:href="#ic_flags_us-a"/>
    <path fill="#D02F44" d="M28,18.6666667 L28,20 L0,20 L0,18.6666667 L28,18.6666667 Z M28,16 L28,17.3333333 L0,17.3333333 L0,16 L28,16 Z M28,13.3333333 L28,14.6666667 L0,14.6666667 L0,13.3333333 L28,13.3333333 Z M28,10.6666667 L28,12 L0,12 L0,10.6666667 L28,10.6666667 Z M28,8 L28,9.33333333 L0,9.33333333 L0,8 L28,8 Z M28,5.33333333 L28,6.66666667 L0,6.66666667 L0,5.33333333 L28,5.33333333 Z M28,2.66666667 L28,4 L0,4 L0,2.66666667 L28,2.66666667 Z M28,0 L28,1.33333333 L0,1.33333333 L0,0 L28,0 Z" mask="url(#ic_flags_us-b)"/>
    <rect width="12" height="9.333" fill="#46467F" mask="url(#ic_flags_us-b)"/>
    <g mask="url(#ic_flags_us-b)">
      <use fill="#000" filter="url(#ic_flags_us-c)" xlink:href="#ic_flags_us-d"/>
      <use fill="url(#ic_flags_us-e)" xlink:href="#ic_flags_us-d"/>
    </g>
  </g>
</svg>
